presets/yamaha-motorsport/LOOK_YAMAHA_MOTORSPORT.xmp
<x:xmpmeta xmlns:x="adobe:ns:meta/" x:xmptk="Adobe XMP Core 7.0">
 <rdf:RDF xmlns:rdf="http://www.w3.org/1999/02/22-rdf-syntax-ns#">
  <rdf:Description rdf:about=""
    xmlns:crs="http://ns.adobe.com/camera-raw-settings/1.0/"
    crs:PresetType="Normal"
    crs:Cluster=""
    crs:UUID="A1F4C7D2B8E4416FA0C39D5E7B21C480"
    crs:SupportsAmount2="True"
    crs:SupportsColor="True"
    crs:SupportsMonochrome="False"
    crs:SupportsHighDynamicRange="True"
    crs:SupportsNormalDynamicRange="True"
    crs:SupportsSceneReferred="True"
    crs:SupportsOutputReferred="False"
    crs:CameraModelRestriction=""
    crs:Copyright=""
    crs:ContactInfo=""
    crs:Version="15.4"
    crs:ProcessVersion="15.4"
    crs:HasSettings="True"
    crs:WhiteBalance="Custom"
    crs:Temperature="5400"
    crs:Tint="+6"
    crs:Contrast2012="+8"
    crs:Highlights2012="-40"
    crs:Shadows2012="+26"
    crs:Whites2012="-14"
    crs:Blacks2012="-14"
    crs:Texture="+14"
    crs:Clarity2012="+8"
    crs:Dehaze="+5"
    crs:Vibrance="+6"
    crs:Saturation="-2"
    crs:ParametricShadows="0"
    crs:ParametricDarks="0"
    crs:ParametricLights="0"
    crs:ParametricHighlights="0"
    crs:ParametricShadowSplit="25"
    crs:ParametricMidtoneSplit="50"
    crs:ParametricHighlightSplit="75"
    crs:HueAdjustmentRed="+2"
    crs:HueAdjustmentOrange="-3"
    crs:HueAdjustmentYellow="-5"
    crs:HueAdjustmentGreen="-8"
    crs:HueAdjustmentAqua="+8"
    crs:HueAdjustmentBlue="-10"
    crs:HueAdjustmentPurple="+4"
    crs:HueAdjustmentMagenta="0"
    crs:SaturationAdjustmentRed="-8"
    crs:SaturationAdjustmentOrange="-16"
    crs:SaturationAdjustmentYellow="-12"
    crs:SaturationAdjustmentGreen="-14"
    crs:SaturationAdjustmentAqua="-8"
    crs:SaturationAdjustmentBlue="+6"
    crs:SaturationAdjustmentPurple="-6"
    crs:SaturationAdjustmentMagenta="-10"
    crs:LuminanceAdjustmentRed="-6"
    crs:LuminanceAdjustmentOrange="-10"
    crs:LuminanceAdjustmentYellow="-8"
    crs:LuminanceAdjustmentGreen="-6"
    crs:LuminanceAdjustmentAqua="-10"
    crs:LuminanceAdjustmentBlue="-4"
    crs:LuminanceAdjustmentPurple="-4"
    crs:LuminanceAdjustmentMagenta="-4"
    crs:ColorGradeShadowLum="0"
    crs:ColorGradeMidtoneHue="0"
    crs:ColorGradeMidtoneSat="0"
    crs:ColorGradeMidtoneLum="0"
    crs:ColorGradeHighlightLum="0"
    crs:ColorGradeGlobalHue="0"
    crs:ColorGradeGlobalSat="0"
    crs:ColorGradeGlobalLum="0"
    crs:SplitToningShadowHue="218"
    crs:SplitToningShadowSaturation="6"
    crs:SplitToningHighlightHue="42"
    crs:SplitToningHighlightSaturation="4"
    crs:SplitToningBalance="0"
    crs:ColorGradeBlending="50"
    crs:Sharpness="45"
    crs:SharpenRadius="0.9"
    crs:SharpenDetail="35"
    crs:SharpenEdgeMasking="55"
    crs:LuminanceSmoothing="12"
    crs:LuminanceNoiseReductionDetail="50"
    crs:LuminanceNoiseReductionContrast="0"
    crs:ColorNoiseReduction="28"
    crs:ColorNoiseReductionDetail="50"
    crs:ColorNoiseReductionSmoothness="50"
    crs:EnableLensCorrections="True"
    crs:LensProfileEnable="1"
    crs:LensProfileSetup="Auto"
    crs:LensProfileDistortionScale="100"
    crs:LensProfileVignettingScale="100"
    crs:AutoLateralCA="1"
    crs:DefringePurpleAmount="5"
    crs:DefringePurpleHueLo="30"
    crs:DefringePurpleHueHi="70"
    crs:DefringeGreenAmount="0"
    crs:DefringeGreenHueLo="40"
    crs:DefringeGreenHueHi="60"
    crs:PerspectiveUpright="0"
    crs:PostCropVignetteAmount="-10"
    crs:PostCropVignetteMidpoint="50"
    crs:PostCropVignetteFeather="60"
    crs:PostCropVignetteRoundness="0"
    crs:PostCropVignetteStyle="1"
    crs:PostCropVignetteHighlightContrast="0"
    crs:GrainAmount="0"
    crs:ConvertToGrayscale="False"
    crs:CameraProfile="Adobe Color"
    crs:ToneCurveName2012="Custom">
   <crs:Name>
    <rdf:Alt>
     <rdf:li xml:lang="x-default">LOOK YAMAHA MOTORSPORT</rdf:li>
    </rdf:Alt>
   </crs:Name>
   <crs:ShortName>
    <rdf:Alt>
     <rdf:li xml:lang="x-default">Yamaha Motorsport</rdf:li>
    </rdf:Alt>
   </crs:ShortName>
   <crs:SortName>
    <rdf:Alt>
     <rdf:li xml:lang="x-default">Yamaha Motorsport</rdf:li>
    </rdf:Alt>
   </crs:SortName>
   <crs:Group>
    <rdf:Alt>
     <rdf:li xml:lang="x-default">Motorsport</rdf:li>
    </rdf:Alt>
   </crs:Group>
   <crs:Description>
    <rdf:Alt>
     <rdf:li xml:lang="x-default">Revelado comercial motorsport: azul profundo y limpio, negros definidos, altas luces controladas, fondo atenuado. Sin exposicion ni recorte incluidos.</rdf:li>
    </rdf:Alt>
   </crs:Description>
   <crs:Look>
    <rdf:Description
      crs:Name="Adobe Color"
      crs:Amount="1"
      crs:UUID="B952C231111CDC9929E1E570B0D0F58E"
      crs:SupportsAmount="false"
      crs:SupportsMonochrome="false"
      crs:SupportsOutputReferred="false"/>
   </crs:Look>
   <crs:ToneCurvePV2012>
    <rdf:Seq>
     <rdf:li>0, 0</rdf:li>
     <rdf:li>26, 20</rdf:li>
     <rdf:li>64, 58</rdf:li>
     <rdf:li>128, 132</rdf:li>
     <rdf:li>192, 198</rdf:li>
     <rdf:li>232, 236</rdf:li>
     <rdf:li>255, 251</rdf:li>
    </rdf:Seq>
   </crs:ToneCurvePV2012>
   <crs:ToneCurvePV2012Red>
    <rdf:Seq>
     <rdf:li>0, 0</rdf:li>
     <rdf:li>255, 255</rdf:li>
    </rdf:Seq>
   </crs:ToneCurvePV2012Red>
   <crs:ToneCurvePV2012Green>
    <rdf:Seq>
     <rdf:li>0, 0</rdf:li>
     <rdf:li>255, 255</rdf:li>
    </rdf:Seq>
   </crs:ToneCurvePV2012Green>
   <crs:ToneCurvePV2012Blue>
    <rdf:Seq>
     <rdf:li>0, 0</rdf:li>
     <rdf:li>255, 255</rdf:li>
    </rdf:Seq>
   </crs:ToneCurvePV2012Blue>
  </rdf:Description>
 </rdf:RDF>
</x:xmpmeta>
